src/assets/icon-20-trash.svg

<?xml version="1.0" encoding="UTF-8"?>
<svg width="20px" height="20px" viewBox="0 0 20 20" version="1.1" xmlns="http://www.w3.org/2000/svg" xmlns:xlink="http://www.w3.org/1999/xlink">
    <g id="Assets" stroke="none" stroke-width="1" fill="none" fill-rule="evenodd">
        <g id="icon-20-trash-2" fill-rule="nonzero" fill="#27322F">
            <path d="M6.69230769,5 L6.69230769,3.90590188 C6.69230769,2.85475922 7.54149821,2 8.59230769,2 L11.4076923,2 C12.4585018,2 13.3076923,2.85475922 13.3076923,3.90590188 L13.3076923,5 L17,5 L17,7 L3,7 L3,5 L6.69230769,5 Z M8.69230769,5 L11.3076923,5 L11.3076923,4 L8.69230769,4 L8.69230769,5 Z M15.6053258,7 L15.0613449,15.8814905 C15.038541,17.0403 14.1082186,17.9767231 12.9307692,18 L7.04929707,17.9998013 C5.89178144,17.9767231 4.961459,17.0403 4.94032719,15.9228715 L4.3945152,7 L6.39808606,7 L6.93826797,15.8421407 C6.94000011,15.9301619 7.00797239,15.9985799 7.06923077,16 L12.9108355,16.0001987 C12.9920276,15.9985799 13.0599999,15.9301619 13.0634041,15.8007597 L13.6017465,7 L15.6053258,7 Z" id="Combined-Shape"></path>
            <polygon id="Line-2" points="11 9 11 14 12 14 12 9"></polygon>
            <polygon id="Line-2-Copy" points="8 9 8 14 9 14 9 9"></polygon>
        </g>
    </g>
</svg>

<svg width="20" height="20" xmlns="http://www.w3.org/2000/svg"><g fill-rule="nonzero" fill="#27322F"><path d="M6.692 5V3.906c0-1.051.85-1.906 1.9-1.906h2.816c1.05 0 1.9.855 1.9 1.906V5H17v2H3V5h3.692zm2 0h2.616V4H8.692v1zm6.913 2l-.544 8.881A2.162 2.162 0 0 1 12.931 18H7.049c-1.157-.023-2.088-.96-2.109-2.077L4.395 7h2.003l.54 8.842c.002.088.07.157.131.158h5.842c.081-.001.149-.07.152-.2l.539-8.8h2.003z"/><path d="M11 9v5h1V9zM8 9v5h1V9z"/></g></svg>
